icons/Device/qr-scan-fill.svg

<svg viewBox="0 0 24 24" xmlns="http://www.w3.org/2000/svg"><path d="M21 15V20.0066C21 20.5552 20.5551 21 20.0066 21H3.9934C3.44476 21 3 20.5551 3 20.0066V15H21ZM2 11H22V13H2V11ZM21 9H3V3.9934C3 3.44476 3.44495 3 3.9934 3H20.0066C20.5552 3 21 3.44495 21 3.9934V9Z"/></svg>

<svg xmlns="http://www.w3.org/2000/svg" viewBox="0 0 24 24">
    <g>
        <path fill="none" d="M0 0h24v24H0z"/>
        <path d="M21 15v5.007a.994.994 0 0 1-.993.993H3.993A.994.994 0 0 1 3 20.007V15h18zM2 11h20v2H2v-2zm19-2H3V3.993C3 3.445 3.445 3 3.993 3h16.014c.548 0 .993.445.993.993V9z"/>
    </g>
</svg>
